X:1
T:Winterreise, D.911
T:Gute Nacht
T:1. Gute Nacht
T:Winterreise, D.911
T:Wilhelm Müller
T:Franz Schubert
T:OpenScore (CC0)
T:OpenScore (CC0)
T:OpenScore (CC0)
T:OpenScore (CC0)
T:OpenScore (CC0)
C:Franz Schubert
Z:Wilhelm Müller
Z:OpenScore (CC0)
%%score 1 { ( 2 3 6 ) | ( 4 5 ) }
L:1/8
Q:1/4=45
M:2/4
K:F
V:1 treble nm="Singstimme\nVoice"
V:2 treble nm="Pianoforte"
V:3 treble 
V:6 treble 
V:4 bass 
V:5 bass 
V:1
"^Mässig, in gehender Bewegung" z4 | z4 | z4 | z4 | z4 | z4 |: z2 z f | e d A F | E>F E d | %9
w: ||||||Fremd|bin ich ein- ge-|zo- * gen, fremd|
w: ||||||Ich|kann zu mei- ner|Rei- * sen nicht|
 A3/2 F/ A/F/ E/F/ | D2 z f | e d A F | E>F E d | A3/2 F/ A/F/ E/F/ | D2 z C | F F F F | G>A G A | %17
w: zieh ich wie- * der _|aus. Der|Mai war mir ge-|wo- * gen mit|man- chen Blu- * men- *|strauss. Das|Mäd- chen sprach von|Lie- * be, die|
w: wäh- len mit _ der _|Zeit, muss|selbst den Weg mir|wei- * sen in|die- ser Dun- * kel- *|heit. Es|zieht ein Mon- den-|scha- * ten als|
 c/B/ A G A/B/ | A2 z F | B B B B | c>d c d | f/_e/ d c3/2 d/ | B2 z2 | z4 | z2 z d | B3/2 G/ E d | %26
w: Mut- * ter gar von _|Eh', das|Mäd- chen sprach von|Lie- * be, die|Mut- * ter gar von|Eh'||nun|ist die Welt so|
w: mein _ Ge- fähr- te _|mit, es|zieht ein Mon- den-|schat- * ten als|mein _ Ge- fähr- te|mit,||und|auf den weis- sen|
 A>F D F/G/ | AA A =B/^c/ | d2 z d | B3/2 G/ E d | A>F D F/G/ | AA A[A,A] | D2 z2 | z4 | z4 | z4 | %36
w: trü- * be, der _|Weg ge- hüllt in _|Schnee, nun|ist die Welt so|trü- * be, der _|Weg ge- hüllt in|Schnee||||
w: Mat- * ten such' _|ich des Wil- des _|Tritt, und|auf den weis- sen|Mat- * ten such' _|ich des Wil- des|Tritt.||||
 z4 | z4 :| z2 z f | e d A F | E>G B d | A F/G/ A =B/^c/ | d2 z f | e d A F | E>G B d | %45
w: ||Was|soll ich län- ger|wei- * len, dass|man mich _ trieb hin- *|aus? Lass|ir- re Hun- de|heu- * len vor|
w: |||||||||
 A F/G/ A =B/^c/ | d2 z E | F F F F | G>A G A | c/B/ A G A/B/ | A2 z F | B B B B | c>d c d | %53
w: ih- res _ Her- ren _|Haus! Die|Lie- be liebt das|Wan- * dern, Gott|hat _ sie so ge- *|macht von|Ei- nem zu dem|An- * dern, Gott|
w: ||||||||
 f/_e/ d c3/2 d/ | B2 z2 | z4 | z2 z d | B3/2 G/ E d | A>F D A | A d e ^c | d2 z d | B3/2 G/ E d | %62
w: hat _ sie so ge-|macht.||Die|Lie- be liebt das|Wan- * dern, fein|Lieb- chen, gu- te|Nacht! Von|Ei- nem zu dem|
w: |||||||||
 A>F D A | A f e ^c | d2 z2 | z4 | z4 | z4 | z4 | z4 ||[K:D] z2 z f | e d A F | E>F E B | %73
w: An- * dern, fein|lieb- chen gu- te|Nacht!||||||Will|dich im Traum nicht|stö- * ren, wär|
w: |||||||||||
 d3/2 F/ A/F/ E/F/ | D2 z f | e d A F | E>F E B | d3/2 F/ A/F/ E/F/ | D2 z D | G G G F/G/ | %80
w: Schad' um dei- * ne _|Ruh, sollst|mei- nen Tritt nicht|hö- * ren, sacht,|sacht die Thü- * re _|zu! Schreib'|im Vor- ü- ber- *|
w: |||||||
 A>B A B | d/=c/ B A B/c/ | B2 z A | d d d c/d/ | e>f e f | c d A3/2 G/ | F2 z2 | z4 | z2 z d | %89
w: ge- * hen an's|Thor _ dir: gu- te _|Nacht, da-|mit du mö- gest _|se- * hen, an|dich hab' ich ge-|dacht.||Schreib'|
w: |||||||||
 B3/2 ^G/ E d | A>F D A | A d !>!e3/2 c/ | d2 z d | B3/2 ^G/ E d | A>F D A | A f e c | %96
w: im Vor- ü- ber-|ge- * hen an's|Thor dir: gu- te|Nacht, da-|mit du mö- gest|se- * hen, an|dich hab' ich ge-|
w: |||||||
 d2 z[Q:1/4=47] A |[Q:1/4=45] A[Q:1/4=43] =f[Q:1/4=41] e[Q:1/4=39] c || %98
w: dacht, an|dich hab' ich ge-|
w: ||
[K:F][Q:1/4=47]"^a tempo" d2 z2 | z4 | z4 | z4 | z4 | z4 | z4 |] %105
w: dacht.|||||||
w: |||||||
V:2
!p! z2 z (f | edA) (F/>!>(!E/!>)! | ([A,D]2) A,)((!>![B,^CE] | ([A,D]2)) A,)!>(! (!>![DBd]!>)! | %4
 [DFA]2) (G/F/PE/D/) | [A,D][A,D][A,^C][A,C] |: [F,A,D]!pp! (.[Fd].[Fd].[Fd]) | %7
 (.[Fd].[Fd].[Fd].[Fd]) | (.[EGd].[EGd].[EGd].[EGd]) | [FAd][Af][FAd][GA^c] | %10
 (.[FAd].[Fd].[Fd].[Fd]) | (.[Fd].[Fd].[Fd].[Fd]) | (.[EGd].[EGd].[EGd].[EGd]) | %13
 [FAd][Af][FAd][GA^c] | [FAd][Fd][Gc][EB] |"_ligato" [FA]F/G/ [FA][F=B] | [Fc][Fc][Ec][Fc] | %17
 [Ec][Fc][FGc][EGc] | [FAc]([FA][EB][_EFc]) | [DFd]B/c/ [Bd][B=e] | [Bf][Bf][Af][Bf] | %21
 [Af][Bf][Bcf][Acf] | [Bdf][Bd][Bd][Bd] | !>![Ee]>[Ff][Ee] z | !>![Aa]>[Bb][Aa] z | %25
 !>![Ee]>[Ff][Ee] z | !>![Aa]>[Bb][Aa] [FA] | [FA][FAf][GAe][GA] | [FAd][FA][FAd][FAf] | %29
 !>![Ee]>[Ff][Ee] z | !>![Aa]>[Bb][Aa] [FA] | [FA][FAf][GAe][GA^c] | [Ad]2 z (f | %33
 edA)!>(! (F/>!>)!E/ | ([A,D]2) A,)!>(!(([B,^CE]!>)! | ([A,D]2)) A,)!>(! ([DBd]!>)! | %36
 [FA]2) (PG/F/E/D/) | [A,D][A,D][G,^C][G,C] :| [F,A,D]!pp! [Fd][Fd][Fd] | [Fd][Fd][Fd][Fd] | %40
 [EGd][EGd][EGd][EGd] | [FAd][Af][FAd][GA] | [FAd][Fd][Fd][Fd] | [Fd][Fd][Fd][Fd] | %44
 [EGd][EGd][EGd][EGd] | [FAd][Af][FAd][GA] | [FAd][Fd][Gc][EB] |!pp! [FA]"_ligato"F/G/ [FA][F=B] | %48
 [Fc][Fc][Ec][Fc] | [Ec][Fc][FGc][EGc] | [FAc]([FA][EB][_EFc]) | [DFd]B/c/ [Bd][B=e] | %52
 [Bf][Bf][Af][Bf] | [Af][Bf][Bcf][Acf] | [Bdf][Bd][Bd][Bd] | !>![Ee]>[Ff][Ee] z | %56
 !>![Aa]>[Bb][Aa] z | !>![Ee]>[Ff][Ee] z | !>![Aa]>[Bb][Aa][Aa] | [Aa][Aa][Aa][Aa] | %60
 [Aa][FA][FAd][FAf] | !>![Ee]>[Ff][Ee] z | !>![Aa]>[Bb][Aa][Aa] | [Aa][Aa][Aa][Aa] | a z z (f | %65
 edA) (F/>E/ | ([A,D]2) A,)([B,^CE] | ([A,D]2) A,) ([DBd] | [FA]2) (G/F/PE/D/) | %69
 [A,D][A,D][A,^C][A,C] ||[K:D] [F,A,D]!pp! [Fd][Fd][Fd] | [Fd][Fd][Fd][Fd] | [Ed][Ed][Ed][^Ed] | %73
 [Fd][Af][FAd][GAc] | [FAd][Fd][Fd][Fd] | [Fd][Fd][Fd][Fd] | [Ed][Ed][Ed][^Ed] | %77
 [Fd][Af][FAd][GAc] | [FAd][Fd][Gd][A=c] | [GB]G/A/ [GB][G^c] | [Gd][Gd][Fd][Gd] | %81
 [Fd][Gd][GAd][FAd] | [GBd]G/A/ [GB][G^c] | [Fd]d/e/ [df][d^g] | [da][da][ca][da] | aa [ea][ea] | %86
 [dfa][FA][FAd][FAf] | !>![Ee]>[Ff][Ee] z | !>![Aa]>[Bb][Aa] z | !>![Ee]>[Ff][Ee] z | %90
 !>![Aa]>[Bb][Aa][FAf] | [FAf]!<(![DAd]!<)!!>(! [CAc]!>)![EAe] | [DAd][FA][FAd][FAf] | %93
 !>![Ee]>[Ff][Ee] z | !>![Aa]>[Bb][Aa][FAf] | [FAf][DAd][CAc][EAe] | [DAd][DAd][Fdf][A=fa] | %97
"_un poco ritard." [Afa][Ada][Aca][Aea] ||[K:F] [Ada][Adf][Adf]!>![GBd] | %99
 [GBd][DGB][DGB]!>![A,FA] | [A,FA][A,DA][A,^CA][A,EA] | [A,DA][A,A][A,A]!pp![A,A] | %102
 [A,A][A,FA][A,EA][A,^CA] |"_dim." [A,DA][A,DF][A,DF][F,A,D] | [F,A,D]2 z2 |] %105
V:3
 (.F.F.F.F) | FFF[B,^C] | x4 | x4 | A,2 D2 | x4 |: x4 | x4 | x4 | x4 | x4 | x4 | x4 | x4 | x4 | %15
 x4 | x4 | x4 | x4 | x4 | x4 | x4 | x4 | x4 | x4 | x4 | x4 | x4 | x4 | x4 | x4 | x4 | FFFF | %33
 FFF[B,^C] | x4 | x4 | [A,D]2 D2 | x4 :| x4 | x4 | x4 | x4 | x4 | x4 | x4 | x4 | x4 | x4 | x4 | %49
 x4 | x4 | x4 | x4 | x4 | x4 | x4 | x4 | x4 | x4 | x4 | x4 | x4 | x4 | x4 | AFFF | FFF[B,^C] | x4 | %67
 x4 | [A,D]2 D2 | x4 ||[K:D] x4 | x4 | x4 | x4 | x4 | x4 | x4 | x4 | x4 | x4 | x4 | x4 | x4 | x4 | %84
 x4 | c[df] dc | x4 | x4 | x4 | x4 | x4 | x4 | x4 | x4 | x4 | x4 | x4 | x4 ||[K:F] x4 | x4 | x4 | %101
 x4 | x4 | x4 | x4 |] %105
V:4
 (.[D,A,].[D,A,].[D,A,].[D,A,]) | (.[D,A,].[D,A,].[D,A,].[D,G,]) | [D,F,][D,F,][D,F,][D,G,] | %3
 [D,F,][D,F,][D,F,]([G,,D,G,] | [A,,D,F,])[A,,D,F,][B,,D,G,][B,,D,G,] | %5
 [A,,F,][A,,F,][A,,E,][A,,E,] |: [D,,D,] (.[D,A,].[D,A,].[D,A,]) | (.[D,A,].[D,A,].[D,A,].[D,A,]) | %8
 (.[D,B,].[D,B,].[D,B,].[D,B,]) | [D,A,][D,A,][A,,A,][A,,A,] | (.[D,A,].[D,A,].[D,A,].[D,A,]) | %11
 (.[D,A,].[D,A,].[D,A,].[D,A,]) | (.[D,B,].[D,B,].[D,B,].[D,B,]) | [D,A,][D,A,][A,,A,][A,,A,] | %14
 [D,A,][D,A,][E,G,][C,C] | [F,C][F,A,][D,A,][D,G,] | [C,G,][C,G,][C,G,]A,, | G,,A,,/B,,/ C,C, | %18
 F,,(F,[F,G,][F,A,]) | [B,,F,B,][B,D][G,D][G,C] | [F,C][F,C][F,C]D, | C,D,/_E,/ F,[F,,F,] | %22
 [B,,F,][D,B,D][F,B,D][B,D] | [G,B,D][G,B,D][G,B,D][G,B,D] | [F,A,D][F,A,D][F,A,D][F,A,D] | %25
 [G,B,D][G,B,D][G,B,D][G,B,D] | [F,A,D][F,A,D][F,A,D][A,,A,] | A,A,A,A, | %28
 [D,A,][D,A,D][D,A,D][D,A,D] | [G,B,D][G,B,D][G,B,D][G,B,D] | [F,A,D][F,A,D][F,A,D] [A,,A,] | %31
 A,A,A,A, | [D,A,][D,A,][D,A,][D,A,] | [D,A,][D,A,][D,A,][D,G,] | [D,F,][D,F,][D,F,][D,G,] | %35
 [D,F,][D,F,][D,F,] ([G,,D,G,] | [A,,D,F,])[A,,D,F,][B,,D,G,][B,,D,G,] | %37
 [A,,F,][A,,F,][A,,E,][A,,E,] :| .[D,,D,] [D,A,][D,A,][D,A,] | [D,A,][D,A,][D,A,][D,A,] | %40
 [D,B,][D,B,][D,B,][D,B,] | [D,A,][A,,A,][A,,A,][E,A,] | [D,A,][D,A,][D,A,][D,A,] | %43
 [D,A,][D,A,][D,A,][D,A,] | [D,B,][D,B,][D,B,][D,B,] | [D,A,][A,,A,][A,,A,][E,A,] | %46
 [D,A,][D,A,][E,G,][C,C] | [F,C][F,A,][D,A,][D,G,] | [C,G,][C,G,][C,G,]A,, | G,,A,,/B,,/ C,C, | %50
 F,,(F,[F,G,][F,A,]) | [B,,F,B,][B,D][G,D][G,C] | [F,C][F,C][F,C]D, | C,D,/_E,/ F,[F,,F,] | %54
 [B,,F,][D,B,D][F,B,D][B,D] | [G,B,D][G,B,D][G,B,D][G,B,D] | [F,A,D][F,A,D][F,A,D][F,A,D] | %57
 [G,B,D][G,B,D][G,B,D][G,B,D] | [F,A,D][F,A,D][F,A,D][A,,F,A,] | %59
 [A,,F,A,][A,,F,A,][A,,G,A,][A,,E,A,] | [D,F,A,][D,A,D][D,A,D][D,A,D] | %61
 [G,B,D][G,B,D][G,B,D][G,B,D] | [F,A,D][F,A,D][F,A,D][A,,F,A,] | %63
 [A,,F,A,][A,,A,][A,,G,A,][A,,E,A,] | [D,F,A,][D,A,][D,A,][D,A,] | %65
 [D,A,][D,A,][D,A,]!>(![D,A,]!>)! | [D,F,][D,F,][D,F,]!>(![D,G,]!>)! | %67
 [D,F,][D,F,][D,F,]!>(!([G,,D,G,]!>)! | [A,,D,F,])[A,,D,F,][B,,D,G,][B,,D,G,] | %69
 [A,,F,][A,,F,][A,,E,][A,,E,] ||[K:D] [D,,D,] [D,A,][D,A,][D,A,] | [D,A,][D,A,][D,A,][D,A,] | %72
 [D,^G,B,][D,G,B,][D,G,B,][D,G,B,] | [D,A,][D,A,][A,,A,][A,,A,] | [D,A,][D,A,][D,A,][D,A,] | %75
 [D,A,][D,A,][D,A,][D,A,] | [D,^G,B,][D,G,B,][D,G,B,][D,G,B,] | [D,A,][D,A,][A,,A,][A,,A,] | %78
 [D,A,][D,A,][E,G,][F,D] | [G,D][G,B,][G,B,][E,A,] | [D,A,][D,A,][D,A,]B,, | A,,B,,/=C,/ D,D, | %82
 G,,[G,B,][E,B,][E,A,] | [D,A,][DF][B,F][B,E] | [A,E][A,E][A,E]F, | E,F,/G,/ A,[A,,A,] | %86
 [D,A,][D,A,D] [D,A,D][D,A,D] | [D,^G,B,D][D,G,B,D][D,G,B,D][D,E,G,D] | %88
 [D,F,A,D][D,F,A,D][D,F,A,D][D,F,A,D] | [D,^G,B,D][D,G,B,D][D,G,B,D][D,E,G,D] | %90
 [D,F,A,D][D,F,A,D][D,F,A,D][A,,F,A,] | [A,,F,A,][A,,F,A,] [A,,G,A,][A,,G,A,] | %92
 [D,F,A,][D,A,D][D,A,D][D,A,D] | [D,^G,B,D][D,G,B,D][D,G,B,D][D,E,G,D] | %94
 [D,F,A,D][D,F,A,D][D,F,A,D][A,,F,A,] | [A,,F,A,][A,,F,A,][A,,G,A,][A,,G,A,] | %96
 [A,,F,A,][D,F,A,][D,A,D]!pp![A,,=F,A,] | [A,,=F,A,][A,,F,A,][A,,G,A,][A,,G,A,] || %98
[K:F] [A,,F,A,][D,F,A,][D,F,A,][D,G,B,] | [D,G,B,][G,B,][G,B,][A,,D,] | %100
 A,,[A,,F,][A,,E,][A,,^C,G,] | [D,F,]A,,A,,[A,,F,] | [A,,F,][A,,D,][A,,^C,][A,,E,G,] | %103
 [D,F,]A,,A,,[D,,A,,D,] | [D,,A,,D,]2 z2 |] %105
V:5
 x4 | x4 | x4 | x4 | x4 | x4 |: x4 | x4 | x4 | x4 | x4 | x4 | x4 | x4 | x4 | x4 | x4 | x4 | x4 | %19
 x4 | x4 | x4 | x4 | x4 | x4 | x4 | x4 | A,,A,, A,,E,/>!>!F,/ | x4 | x4 | x4 | %31
 A,,A,, A,,!>!E,/>F,/ | x4 | x4 | x4 | x4 | x4 | x4 :| x4 | x4 | x4 | x4 | x4 | x4 | x4 | x4 | x4 | %47
 x4 | x4 | x4 | x4 | x4 | x4 | x4 | x4 | x4 | x4 | x4 | x4 | x4 | x4 | x4 | x4 | x4 | x4 | x4 | %66
 x4 | x4 | x4 | x4 ||[K:D] x4 | x4 | x4 | x4 | x4 | x4 | x4 | x4 | x4 | x4 | x4 | x4 | x4 | x4 | %84
 x4 | x4 | x4 | x4 | x4 | x4 | x4 | x4 | x4 | x4 | x4 | x4 | x4 | x4 ||[K:F] x4 | x4 | x4 | x4 | %102
 x4 | x4 | x4 |] %105
V:6
 x4 | x4 | x4 | x4 | x4 | x4 |: x4 | x4 | x4 | x4 | x4 | x4 | x4 | x4 | x4 | x4 | x4 | x4 | x4 | %19
 x4 | x4 | x4 | x4 | x4 | x4 | x4 | x4 | x4 | x4 | x4 | x4 | x4 | x4 | x4 | x4 | x4 | x4 | x4 :| %38
 x4 | x4 | x4 | x4 | x4 | x4 | x4 | x4 | x4 | x4 | x4 | x4 | x4 | x4 | x4 | x4 | x4 | x4 | x4 | %57
 x4 | x4 | x4 | x4 | x4 | x4 | x4 | x4 | x4 | x4 | x4 | x4 | x4 ||[K:D] x4 | x4 | x4 | x4 | x4 | %75
 x4 | x4 | x4 | x4 | x4 | x4 | x4 | x4 | x4 | x4 | a/g/ x3 | x4 | x4 | x4 | x4 | x4 | x4 | x4 | %93
 x4 | x4 | x4 | x4 | x4 ||[K:F] x4 | x4 | x4 | x4 | x4 | x4 | x4 |] %105

